logo/parcel.svg

<?xml version="1.0" encoding="UTF-8"?>
<svg width="512px" height="105px" viewBox="0 0 512 105" version="1.1" xmlns="http://www.w3.org/2000/svg" xmlns:xlink="http://www.w3.org/1999/xlink" preserveAspectRatio="xMidYMid">
    <g>
        <path d="M323.127201,0 C335.201561,0 343.538753,8.3369436 343.538753,20.4115378 L343.538753,37.0856598 L322.839436,37.0856598 L322.839436,24.4362444 C322.839436,21.2738893 321.114728,19.5489466 317.952138,19.5489466 L295.528602,19.5489466 C292.366012,19.5489466 290.641304,21.2738893 290.641304,24.4362444 L290.641304,80.2084992 C290.641304,83.3706195 292.366012,85.0953274 295.528602,85.0953274 L317.952158,85.0953274 C321.114747,85.0953274 322.839455,83.3706195 322.839455,80.2084992 L322.839455,67.5590838 L343.538753,67.5590838 L343.538753,84.2334406 C343.538753,96.3073304 335.201575,104.644509 323.127216,104.644509 L290.353544,104.644509 C278.279184,104.644509 269.942476,96.3073304 269.942476,84.2334406 L269.942476,20.4115378 C269.942476,8.33694839 278.279184,0 290.353544,0 L323.127201,0 Z M52.8974254,0.574825982 C64.9717848,0.574825982 73.3087284,8.91200436 73.3087284,20.9863638 L73.3087284,47.1475509 C73.3087284,59.2219103 64.9717848,67.5590886 52.8974254,67.5590886 L20.6990634,67.5590886 L20.6990634,104.069922 L0,104.069922 L0,0.574825982 L52.8974254,0.574825982 Z M131.953934,0.574825982 L165.302418,104.069918 L143.022048,104.069918 L136.266397,80.7830904 L102.774277,80.7830904 L95.8745112,104.069918 L74.4567417,104.069918 L107.80522,0.574825982 L131.953934,0.574825982 Z M231.708807,0.574825982 C243.783167,0.574825982 252.119876,8.91200436 252.119876,20.9863638 L252.119876,45.2789579 C252.119876,55.0533139 246.657991,62.3842605 238.033517,64.8279046 L255.282465,104.069918 L233.002105,104.069918 L216.328217,65.6904957 L199.653856,65.6904957 L199.653856,104.069918 L178.955023,104.069918 L178.955023,0.574825982 L231.708807,0.574825982 Z M429.637491,0.574825982 L429.637491,20.1240074 L382.63336,20.1240074 L382.63336,41.3978967 L420.725266,41.3978967 L420.725266,60.9468338 L382.63336,60.9468338 L382.63336,84.5207218 L429.637491,84.5207218 L429.637491,104.069903 L361.934526,104.069903 L361.934526,0.574825982 L429.637491,0.574825982 Z M468.5894,0.574825982 L468.5894,84.5207362 L512,84.5207362 L512,104.069918 L447.890567,104.069918 L447.890567,0.574825982 L468.5894,0.574825982 Z M320.539672,8.3369436 L292.941073,8.3369436 C284.029303,8.3369436 278.854245,13.5117669 278.854245,22.4237713 L278.854245,82.2205027 C278.854245,91.1327419 284.029303,96.3073304 292.941073,96.3073304 L320.539672,96.3073304 C329.451911,96.3073304 334.6265,91.1327419 334.6265,82.2205027 L334.6265,75.8962622 L331.751675,75.8962622 L331.751675,82.2205027 C331.751675,89.4080435 327.726734,93.4325058 320.539672,93.4325058 L292.941073,93.4325058 C285.754011,93.4325058 281.72907,89.4080339 281.72907,82.2205027 L281.72907,22.4237713 C281.72907,15.2367096 285.754011,11.212003 292.941073,11.212003 L320.539672,11.212003 C327.726734,11.212003 331.751675,15.2367096 331.751675,22.4237713 L331.751675,29.036007 L334.6265,29.036007 L334.6265,22.4237713 C334.6265,13.5117669 329.451911,8.3369436 320.539672,8.3369436 Z M50.3098963,8.91200436 L8.91199957,8.91200436 L8.91199957,95.7327392 L11.7868242,95.7327392 L11.7868242,59.2219055 L50.3098963,59.2219055 C59.2219007,59.2219055 64.396724,54.0473169 64.396724,45.1350778 L64.396724,22.9988321 C64.396724,14.0868277 59.2219007,8.91200436 50.3098963,8.91200436 Z M126.491815,8.91200436 L113.267339,8.91200436 L86.2438007,95.7327392 L88.9749799,95.7327392 L96.1620416,72.4463768 L143.309818,72.4463768 L150.352755,95.7327392 L153.083944,95.7327392 L126.491815,8.91200436 Z M229.121278,8.91200436 L187.867262,8.91200436 L187.867262,95.7327392 L190.742086,95.7327392 L190.742086,57.4969628 L222.365158,57.4969628 L239.039514,95.7327392 L242.057989,95.7327392 L225.384102,57.4969628 L229.121278,57.4969628 C238.033517,57.4969628 243.208106,52.3223742 243.208106,43.4103698 L243.208106,22.9988321 C243.208106,14.0868277 238.033517,8.91200436 229.121278,8.91200436 Z M420.725256,8.91200436 L370.846766,8.91200436 L370.846766,95.7327392 L420.725256,95.7327392 L420.725256,92.8579146 L373.72159,92.8579146 L373.72159,52.6098902 L411.813496,52.6098902 L411.813496,49.7348308 L373.72159,49.7348308 L373.72159,11.786829 L420.725256,11.786829 L420.725256,8.91200436 Z M459.677631,8.91200436 L456.802806,8.91200436 L456.802806,95.7327392 L503.087775,95.7327392 L503.087775,92.8579146 L459.677631,92.8579146 L459.677631,8.91200436 Z M124.766873,11.786829 L142.446987,69.5715521 L97.0243932,69.5715521 L114.992282,11.786829 L124.766873,11.786829 Z M119.735695,23.2863624 L108.523922,61.2343738 L130.660167,61.2343738 L119.735695,23.2863624 Z M50.3098963,11.7868194 C57.4971927,11.7868194 61.5218993,15.8117704 61.5218993,22.9988321 L61.5218993,45.1350778 C61.5218993,52.3223742 57.4971927,56.3470808 50.3098963,56.3470808 L11.7868242,56.3470808 L11.7868242,11.7868194 L50.3098963,11.7868194 Z M229.121278,11.786829 C236.30834,11.786829 240.333281,15.8117704 240.333281,22.9988321 L240.333281,43.4103698 C240.333281,50.5974315 236.30834,54.6221381 229.121278,54.6221381 L190.742086,54.6221381 L190.742086,11.786829 L229.121278,11.786829 Z M47.722602,20.1240074 L20.6990634,20.1240074 L20.6990634,48.0101324 L47.722602,48.0101324 C50.8849571,48.0101324 52.6098998,46.2851897 52.6098998,43.1228347 L52.6098998,25.0113051 C52.6098998,21.8489501 50.8849571,20.1240074 47.722602,20.1240074 Z M226.533749,20.1240026 L199.653856,20.1240026 L199.653856,46.4288399 L226.533749,46.4288399 C229.696339,46.4288399 231.421047,44.7038972 231.421047,41.5415421 L231.421047,25.0113004 C231.421047,21.8489453 229.696339,20.1240026 226.533749,20.1240026 Z" fill="#BE4248" fill-rule="nonzero"></path>
    </g>
</svg>

<svg viewBox="0 0 512 105" xmlns="http://www.w3.org/2000/svg"><path fill="#BE4248" d="M323.12 0c12.07 0 20.41 8.33 20.41 20.41v16.67h-20.7V24.43c0-3.17-1.73-4.89-4.89-4.89h-22.43c-3.17 0-4.89 1.72-4.89 4.88v55.77c0 3.16 1.72 4.88 4.88 4.88h22.42c3.16 0 4.88-1.73 4.88-4.89V67.53h20.69V84.2c0 12.07-8.34 20.41-20.42 20.41h-32.78c-12.08 0-20.42-8.34-20.42-20.42V20.36c0-12.08 8.33-20.42 20.41-20.42h32.77ZM52.89.57C64.96.57 73.3 8.9 73.3 20.98v26.16c0 12.07-8.34 20.41-20.42 20.41h-32.2v36.51H-.02V.56h52.89Zm79.05 0l33.34 103.49h-22.29l-6.76-23.29h-33.5l-6.9 23.28H74.41L107.75.55h24.14Zm99.75 0c12.07 0 20.41 8.33 20.41 20.41v24.29c0 9.77-5.47 17.1-14.09 19.54l17.24 39.24h-22.29l-16.68-38.38H199.6v38.37h-20.7V.54h52.75Zm197.92 0v19.54H382.6v21.27h38.09v19.54h-38.1v23.57h47v19.54h-67.71V.53h67.7Zm38.95 0v83.94h43.41v19.54h-64.11V.55h20.69ZM320.51 8.33h-27.6c-8.92 0-14.09 5.17-14.09 14.08V82.2c0 8.91 5.17 14.08 14.08 14.08h27.59c8.91 0 14.08-5.18 14.08-14.09v-6.33h-2.88v6.32c0 7.18-4.03 11.21-11.22 11.21h-27.6c-7.19 0-11.22-4.03-11.22-11.22v-59.8c0-7.19 4.02-11.22 11.21-11.22h27.59c7.18 0 11.21 4.02 11.21 11.21v6.61h2.87v-6.62c0-8.92-5.18-14.09-14.09-14.09ZM50.28 8.9H8.88v86.82h2.87V59.2h38.52c8.91 0 14.08-5.18 14.08-14.09V22.97c0-8.92-5.18-14.09-14.09-14.09Zm76.18 0h-13.23L86.2 95.72h2.73l7.18-23.29h47.14l7.04 23.28h2.73l-26.6-86.83Zm102.62 0h-41.26v86.82h2.87V57.48h31.62l16.67 38.23h3.01l-16.68-38.24h3.73c8.91 0 14.08-5.18 14.08-14.09V22.96c0-8.92-5.18-14.09-14.09-14.09Zm191.6 0H370.8v86.82h49.87v-2.88h-47.01V52.59h38.09v-2.88h-38.1V11.76h47V8.88Zm38.95 0h-2.88v86.82h46.28v-2.88h-43.42V8.89Zm-334.92 2.87l17.68 57.78H96.96l17.96-57.79h9.77Zm-5.04 11.49L108.45 61.2h22.13l-10.93-37.95Zm-69.43-11.5c7.18 0 11.21 4.02 11.21 11.21V45.1c0 7.18-4.03 11.21-11.22 11.21H11.7V11.74h38.52Zm178.81 0c7.18 0 11.21 4.02 11.21 11.21v20.41c0 7.18-4.03 11.21-11.22 11.21h-38.38V11.75h38.37Zm-181.4 8.33H20.62v27.88h27.02c3.16 0 4.88-1.73 4.88-4.89V24.96c0-3.17-1.73-4.89-4.89-4.89Zm178.81-.01h-26.88v26.3h26.87c3.16 0 4.88-1.73 4.88-4.89V24.95c0-3.17-1.73-4.89-4.89-4.89Z"/></svg>
